assets/images/contacts/gps.svg

<svg width="21" height="22" viewBox="0 0 21 22" fill="none" xmlns="http://www.w3.org/2000/svg">
<path d="M18.1364 9.7864C17.9688 8.01044 17.1899 6.34871 15.9337 5.0873C14.6776 3.82589 13.0227 3.04374 11.2541 2.87553V0H9.82227V2.87553C8.04001 3.02677 6.36717 3.80143 5.09547 5.0644C3.82377 6.32736 3.03391 7.99851 2.86364 9.7864H0V11.2242H2.86364C3.03115 13.0001 3.81006 14.6619 5.06625 15.9233C6.32244 17.1847 7.9773 17.9668 9.74591 18.135V21.0106H11.1777V18.135C12.96 17.9838 14.6328 17.2091 15.9045 15.9462C17.1762 14.6832 17.9661 13.012 18.1364 11.2242H21V9.7864H18.1364ZM10.5 16.7356C9.27286 16.7356 8.07327 16.3702 7.05294 15.6856C6.03261 15.001 5.23735 14.028 4.76775 12.8895C4.29814 11.7511 4.17527 10.4984 4.41467 9.2898C4.65408 8.08124 5.245 6.9711 6.11272 6.09978C6.98044 5.22845 8.08599 4.63507 9.28955 4.39467C10.4931 4.15427 11.7406 4.27766 12.8744 4.74921C14.0081 5.22077 14.9771 6.01933 15.6589 7.0439C16.3407 8.06847 16.7045 9.27304 16.7045 10.5053C16.702 12.1569 16.0475 13.7401 14.8845 14.908C13.7215 16.0758 12.1448 16.7331 10.5 16.7356ZM10.5 9.54677C10.3112 9.54677 10.1267 9.60298 9.96968 9.70831C9.81271 9.81363 9.69036 9.96333 9.61811 10.1385C9.54587 10.3136 9.52696 10.5063 9.5638 10.6923C9.60063 10.8782 9.69154 11.049 9.82503 11.183C9.95853 11.3171 10.1286 11.4084 10.3138 11.4454C10.4989 11.4824 10.6909 11.4634 10.8653 11.3908C11.0397 11.3183 11.1888 11.1954 11.2937 11.0378C11.3986 10.8802 11.4545 10.6949 11.4545 10.5053C11.4545 10.2511 11.354 10.0073 11.175 9.82751C10.996 9.64775 10.7532 9.54677 10.5 9.54677Z" fill="#0029FF"/>
</svg>

<svg width="21" height="22" fill="none" xmlns="http://www.w3.org/2000/svg"><path d="M18.136 9.786a7.682 7.682 0 00-2.202-4.699 7.623 7.623 0 00-4.68-2.211V0H9.822v2.876a7.623 7.623 0 00-4.727 2.188 7.681 7.681 0 00-2.231 4.722H0v1.438h2.864a7.682 7.682 0 002.202 4.7 7.623 7.623 0 004.68 2.211v2.876h1.432v-2.876a7.623 7.623 0 004.726-2.189 7.682 7.682 0 002.232-4.722H21V9.786h-2.864zm-7.636 6.95a6.186 6.186 0 01-3.447-1.05 6.225 6.225 0 01-2.285-2.796A6.254 6.254 0 016.113 6.1a6.18 6.18 0 016.762-1.35 6.21 6.21 0 012.784 2.294 6.248 6.248 0 011.045 3.461 6.253 6.253 0 01-1.82 4.403 6.201 6.201 0 01-4.384 1.828zm0-7.19a.952.952 0 00-.882.593.962.962 0 00.696 1.306.95.95 0 00.98-.407.961.961 0 00-.794-1.491z" fill="#0029FF"/></svg>
